X: 1
T: Munster Buttermilk
R: jig
M: 6/8
L: 1/8
K: Gmaj
|: "G" g3 age|d2B BAB|d2B BAB|dBG GBd|
"G/B"gfg age|d2B BAB|dBG GAB| "D"A3 "G"G2B:|
|: "G" d2e g2a | b3 bag | "D" a3 age|gfg age|
"Em" d2e g2a | "G/B" b3 bag | "D" age deg |1 a3 "C" g2e :|2 a3 "g" g2f ||
